X:125
T:Cluny Rock
R:Reel
C:James Stewart-Robertson
B:The Athole Collection
M:C|
L:1/8
K:A
(3e//f//g//|a2 a>e fedc|Bcde fefg|a2 a>e fece|fgac B2A:|
e|cAAe cAec|Bcde fBbB|1 cAAe cAec|fgac B2Ae:|2
cAeA fAeA fgac B2A||

